X: 12
T: The Seven Step
R: barndance
M: 4/4
L: 1/8
K: Gmaj
D2|G2G2 G2G2|F>GA>F G2D2|B2B2 B2B2|A>Bc>A B2G2|e2e2 d3B|c2c2 B3G|E2A2 A3G|F>DE>F G>AB>d|e2e2 d3B|c2c2 B3G|E2A2 A3G|F>DE>F G2:|


Tune 1307	Setting 26734

